X: 1
T:The Rowan Tree -- Reel
M:C|
L:1/8
R:reel
B:Ryan's Mammoth Collection
Z:Contributed by Ray Davies,  ray:davies99.freeserve.co.uk
K:G
ug"^Segno"|dGBG FAAc|BGBd (e/f/g) f>e|dGBG FAAB|EGFA G3 g|
dGBG FAAc|BGBd (e/f/g) (f>e)|dGBG FAAB|EGFA G2 GH|]
d|g2 f>g afed|ggf>g ({fg}a2) d2|dgfg afed|(e/f/g) (f/g/a) g2 g>d|
g2 f>g afed|ggfg ({fg}a2) d2|dgfg afed|egfa gbeg "^Segno"|]
